X: 41558
T: Union Quay Commotions
R: reel
M: 4/4
K: Gmajor
Bc2~c AB2~B|AdBA BAGA|DE2~D E2G2-|GBA/B/c BGGB|
Bc2~c AB2~B|AdBA BAG2|fg2~f gedB|c2Bc BGGB|
Bc2~c AB2~B|AdBA BAGA|DE2~D E2G2-|GBBc BGGB|
Bc2~c AB2~B|AdBA BAGA|gedg eage|dBBc BGGE|
D3E G3A|B3A BAGA|DE2G Bc2e|g3f gedB|
DB,DE GFGA|BddB BAGA|fg2~f gedB|c2Bc BGGE|
D3E G3A|B3A BAGA|DE2G Bc2e|g3f gedB|
DB,DE GFGA|BddB BAGA|gedg eage|dBBc BGGB|

